U-commodities/img/partners/perfectum.svg

<svg width="160" height="40" viewBox="0 0 160 40" fill="none" xmlns="http://www.w3.org/2000/svg">
<path d="M19.9658 22.3391C21.9462 20.2153 23.0587 17.3351 23.0587 14.332C23.0587 11.3292 21.9461 8.44932 19.9657 6.32598C17.9852 4.20264 15.2992 3.00977 12.4984 3.00977H1.93556V14.332C3.32279 14.3317 4.6965 14.6244 5.9782 15.1934C7.2599 15.7624 8.42448 16.5965 9.4054 17.6483C10.3863 18.7 11.1644 19.9486 11.6951 21.3227C12.2258 22.6969 12.4988 24.1698 12.4984 25.6571H7.21699C5.81672 25.6571 4.47376 26.2533 3.48337 27.3146C2.49299 28.3759 1.93625 29.8155 1.93556 31.3168C1.93419 32.0614 2.06979 32.7989 2.3346 33.4872C2.5994 34.1755 2.98821 34.8011 3.47878 35.328C3.96934 35.855 4.55202 36.2731 5.19347 36.5584C5.83493 36.8437 6.52255 36.9905 7.21699 36.9905C7.91144 36.9905 8.59906 36.8437 9.24052 36.5584C9.88197 36.2731 10.4646 35.855 10.9552 35.328C11.4458 34.8011 11.8346 34.1755 12.0994 33.4872C12.3642 32.7989 12.4998 32.0614 12.4984 31.3168V25.6571C15.2994 25.6564 17.9855 24.4629 19.9658 22.3391Z" fill="#64708B"/>
<path fill-rule="evenodd" clip-rule="evenodd" d="M48.9437 13.1895C47.8751 12.1133 46.3335 11.5727 44.3346 11.5727H39.0237C38.8559 11.5692 38.6891 11.5984 38.5333 11.6584C38.3775 11.7184 38.236 11.8081 38.1172 11.922C37.9985 12.0359 37.9051 12.1716 37.8425 12.3211C37.7799 12.4706 37.7496 12.6306 37.7532 12.7917V29.317H40.7302V23.0129H44.0954C46.1899 23.0129 47.7741 22.5386 48.8799 21.5185C49.9856 20.5256 50.5385 19.1094 50.5385 17.2699C50.5656 16.5225 50.4387 15.7774 50.165 15.0772C49.8914 14.377 49.4763 13.7355 48.9437 13.1895ZM47.4924 17.2393C47.4924 19.4426 46.3529 20.5443 44.0741 20.5443H40.7302V14.0362H44.0475C44.5098 14.0068 44.9735 14.0661 45.4117 14.2106C45.8498 14.3551 46.2535 14.5819 46.5993 14.8778C46.9079 15.1923 47.1463 15.564 47.2998 15.9701C47.4534 16.3761 47.5189 16.808 47.4924 17.2393Z" fill="#64708B"/>
<path fill-rule="evenodd" clip-rule="evenodd" d="M61.9417 25.8896C60.8294 26.8031 59.4186 27.3138 57.9546 27.333C55.7997 27.333 54.5487 26.2959 54.2014 24.2217H59.7089C60.2166 24.2562 60.7262 24.1922 61.2076 24.0336C61.6889 23.875 62.132 23.625 62.5105 23.2986C62.8324 22.9809 63.0833 22.6035 63.2479 22.1896C63.4124 21.7756 63.4871 21.3338 63.4674 20.8912C63.4966 20.2807 63.3699 19.6726 63.0984 19.1197C62.827 18.5668 62.419 18.0859 61.9098 17.7187C60.8362 16.9533 59.5255 16.5563 58.1885 16.5915C56.101 16.5881 54.4636 17.2342 53.2763 18.5297C52.0848 19.8506 51.4531 21.5524 51.5061 23.2986C51.5061 25.2265 52.0873 26.7566 53.2498 27.8889C53.8453 28.458 54.5568 28.903 55.3399 29.1961C56.1229 29.4893 56.9605 29.6242 57.8004 29.5925C59.7934 29.6267 61.7297 28.9548 63.2388 27.7053L61.9417 25.8896ZM55.4506 19.6314C56.168 18.9835 57.1239 18.635 58.1087 18.6623L58.0875 18.6572C58.8021 18.6253 59.5046 18.8427 60.0651 19.2692C60.2954 19.4473 60.4814 19.6725 60.6092 19.9285C60.7371 20.1844 60.8036 20.4645 60.804 20.7483C60.8189 20.9579 60.7873 21.1681 60.7112 21.365C60.6352 21.562 60.5164 21.7412 60.3628 21.8908C60.0277 22.1726 59.59 22.3157 59.1454 22.2887H54.1429C54.2431 21.2838 54.7056 20.344 55.4506 19.6314Z" fill="#64708B"/>
<path d="M74.7111 16.9485C74.1521 16.6982 73.5417 16.5709 72.9248 16.5762L72.9036 16.5711C72.1354 16.5745 71.3775 16.7404 70.6837 17.0569C69.99 17.3733 69.3775 17.8327 68.8899 18.4021V16.872H66.1414V29.317H68.9803V20.5749C69.4516 20.0732 70.0248 19.6692 70.6647 19.3876C71.3046 19.1061 71.9977 18.953 72.7016 18.9377C73.2033 18.9567 73.7002 19.039 74.1795 19.1825L74.7111 16.9485Z" fill="#64708B"/>
<path d="M80.3356 14.2504C80.8542 13.8178 81.5255 13.5915 82.2122 13.618L82.1909 13.6129C82.9965 13.6337 83.7774 13.8841 84.4343 14.332L85.4975 12.4704C84.4397 11.6691 83.1237 11.247 81.7762 11.2769C81.4018 11.2771 81.0282 11.3095 80.6598 11.3738C80.2127 11.4634 79.7788 11.6056 79.368 11.7971C78.9 12.0014 78.4706 12.2789 78.0975 12.6183C77.6903 13.0176 77.3767 13.4958 77.1778 14.0209C76.915 14.6922 76.7869 15.4052 76.8003 16.1223V29.317H79.5753V18.8612H84.2589V16.872H79.5966V16.2498C79.563 15.8852 79.6116 15.5179 79.7391 15.1729C79.8666 14.8279 80.0701 14.5133 80.3356 14.2504Z" fill="#64708B"/>
<path fill-rule="evenodd" clip-rule="evenodd" d="M95.577 25.8947C94.4647 26.8082 93.0539 27.3189 91.5899 27.3381L91.5686 27.333C89.4279 27.333 88.184 26.2976 87.8367 24.2268H93.3442C93.8511 24.2621 94.3602 24.1984 94.8408 24.0398C95.3214 23.8811 95.7635 23.6307 96.1405 23.3037C96.4641 22.987 96.7165 22.6099 96.882 22.1958C97.0476 21.7817 97.1227 21.3394 97.1027 20.8963C97.1318 20.2858 97.0052 19.6777 96.7337 19.1248C96.4623 18.5719 96.0542 18.091 95.5451 17.7238C94.4715 16.9584 93.1608 16.5614 91.8238 16.5966C89.7327 16.5932 88.0954 17.2392 86.9116 18.5348C85.7182 19.855 85.0845 21.5568 85.136 23.3037C85.1396 25.2316 85.7226 26.7617 86.8851 27.894C87.4798 28.4627 88.1904 28.9075 88.9725 29.2006C89.7546 29.4938 90.5914 29.6289 91.4304 29.5976C93.4252 29.6326 95.3634 28.9607 96.8741 27.7104L95.577 25.8947ZM89.0859 19.6365C89.8033 18.9886 90.7592 18.6401 91.744 18.6674L91.7228 18.6572C92.438 18.6267 93.1406 18.846 93.7004 19.2743C93.9307 19.4524 94.1167 19.6776 94.2445 19.9336C94.3724 20.1895 94.4389 20.4696 94.4393 20.7534C94.4542 20.963 94.4226 21.1732 94.3465 21.3701C94.2705 21.5671 94.1517 21.7463 93.9981 21.8959C93.663 22.1777 93.2253 22.3208 92.7807 22.2938H87.7782C87.8784 21.2889 88.3409 20.3491 89.0859 19.6365Z" fill="#64708B"/>
<path d="M102.673 29.2106C103.456 29.5129 104.297 29.6535 105.141 29.6231C106.376 29.6534 107.594 29.3417 108.649 28.7254C109.582 28.1795 110.34 27.3977 110.84 26.4659L108.74 25.2214C107.825 26.6155 106.659 27.3126 105.242 27.3126C104.759 27.3284 104.279 27.243 103.835 27.0624C103.39 26.8818 102.993 26.6104 102.669 26.267C102.002 25.5869 101.669 24.5431 101.669 23.1353C101.669 21.7276 102.024 20.6633 102.733 19.9425C103.061 19.5919 103.465 19.3137 103.917 19.1271C104.368 18.9405 104.857 18.8497 105.348 18.8612C106.002 18.8345 106.651 18.9922 107.213 19.3149C107.775 19.6375 108.226 20.111 108.511 20.6769L110.739 19.4579C109.686 17.5368 107.88 16.5762 105.321 16.5762C104.448 16.5378 103.576 16.6775 102.764 16.9861C101.951 17.2947 101.215 17.7652 100.606 18.3664C99.4294 19.5599 98.8429 21.1496 98.8464 23.1353C98.8499 25.1211 99.433 26.6988 100.595 27.8685C101.182 28.451 101.89 28.9083 102.673 29.2106Z" fill="#64708B"/>
<path d="M120.839 28.4551L119.856 26.4149V26.4098C119.203 26.8564 118.425 27.1018 117.623 27.1137C117.121 27.1117 116.637 26.9298 116.267 26.6036C116.061 26.4036 115.903 26.1635 115.802 25.8995C115.701 25.6355 115.66 25.3538 115.683 25.0735V18.8612H120.084V16.872H115.683V13.0416H112.886V25.201C112.816 26.3706 113.194 27.5245 113.95 28.4449C114.343 28.8506 114.826 29.1668 115.363 29.3707C115.9 29.5745 116.478 29.6607 117.054 29.6231C118.414 29.6363 119.742 29.2266 120.839 28.4551Z" fill="#64708B"/>
<path d="M134.204 16.872H131.408V25.4305C129.887 26.641 128.532 27.2463 127.341 27.2463C126.044 27.2463 125.395 26.5084 125.395 25.0327V16.872H122.572V25.6703C122.509 26.2018 122.572 26.7401 122.755 27.2453C122.938 27.7506 123.237 28.21 123.63 28.5894C124.023 28.9689 124.5 29.2588 125.025 29.4377C125.551 29.6166 126.111 29.68 126.666 29.6231C128.303 29.6027 129.918 28.9226 131.509 27.5829V29.3222H134.204V16.872Z" fill="#64708B"/>
<path d="M155.571 16.7278C155.041 16.5496 154.475 16.489 153.916 16.5507V16.5711C152.059 16.6156 150.286 17.3251 148.946 18.5603C148.34 17.2205 147.122 16.5507 145.294 16.5507C143.683 16.5507 142.072 17.2545 140.445 18.6623V16.872H137.729V29.3017H140.605V20.682C142.019 19.4885 143.33 18.8918 144.539 18.8918C144.808 18.8616 145.08 18.892 145.335 18.9805C145.59 19.0691 145.82 19.2133 146.006 19.4018C146.334 19.919 146.483 20.5225 146.431 21.1258V29.2864H149.307V20.5647C150.604 19.4392 151.925 18.8765 153.268 18.8765C153.537 18.8516 153.809 18.888 154.062 18.9828C154.314 19.0777 154.539 19.2282 154.719 19.4222C155.056 19.9323 155.211 20.5339 155.16 21.136V29.2967H158.036V20.5239C158.104 19.9885 158.043 19.4453 157.86 18.9354C157.677 18.4254 157.376 17.9619 156.98 17.5795C156.583 17.1972 156.102 16.906 155.571 16.7278Z" fill="#64708B"/>
</svg>

<svg width="160" height="40" fill="none" xmlns="http://www.w3.org/2000/svg"><path d="M19.966 22.34c1.98-2.125 3.093-5.005 3.093-8.008 0-3.003-1.113-5.883-3.093-8.006S15.299 3.01 12.498 3.01H1.936v11.322c1.387 0 2.76.292 4.042.861a10.542 10.542 0 013.427 2.455 11.41 11.41 0 012.29 3.675c.53 1.374.804 2.847.803 4.334H7.217c-1.4 0-2.743.596-3.734 1.658-.99 1.06-1.547 2.5-1.547 4.002a6.02 6.02 0 00.399 2.17 5.706 5.706 0 001.144 1.841c.49.527 1.073.945 1.714 1.23a4.968 4.968 0 004.048 0 5.275 5.275 0 001.714-1.23c.49-.527.88-1.153 1.144-1.84a6.02 6.02 0 00.4-2.171v-5.66c2.8 0 5.486-1.194 7.467-3.318z" fill="#64708B"/><path fill-rule="evenodd" clip-rule="evenodd" d="M48.944 13.19c-1.069-1.077-2.61-1.617-4.61-1.617h-5.31a1.29 1.29 0 00-.49.085 1.25 1.25 0 00-.417.264 1.19 1.19 0 00-.274.4 1.15 1.15 0 00-.09.47v16.525h2.977v-6.304h3.365c2.095 0 3.68-.474 4.785-1.495 1.106-.992 1.658-2.409 1.658-4.248a5.474 5.474 0 00-.373-2.193 5.65 5.65 0 00-1.221-1.887zm-1.452 4.05c0 2.203-1.14 3.304-3.418 3.304H40.73v-6.508h3.318c.462-.03.925.03 1.364.175.438.144.842.37 1.187.667.309.314.547.686.7 1.092.154.406.22.838.193 1.27zm14.45 8.65a6.42 6.42 0 01-3.987 1.443c-2.155 0-3.406-1.037-3.754-3.111h5.508a3.94 3.94 0 001.499-.188 3.83 3.83 0 001.303-.735c.321-.318.572-.695.737-1.11.164-.413.24-.855.22-1.298a3.623 3.623 0 00-.37-1.771 3.789 3.789 0 00-1.188-1.401 6.139 6.139 0 00-3.721-1.128c-2.088-.003-3.725.643-4.913 1.939a6.807 6.807 0 00-1.77 4.769c0 1.928.581 3.458 1.744 4.59a6.137 6.137 0 002.09 1.307 6.34 6.34 0 002.46.396 8.311 8.311 0 005.439-1.887l-1.297-1.815zm-6.492-6.26a3.812 3.812 0 012.658-.969l-.022-.005a3.045 3.045 0 011.978.612c.23.178.416.404.544.66.128.255.195.536.195.82.015.209-.017.42-.093.616a1.476 1.476 0 01-.348.526 1.73 1.73 0 01-1.218.398h-5.002a4.264 4.264 0 011.308-2.658z" fill="#64708B"/><path d="M74.711 16.948a4.284 4.284 0 00-1.786-.372l-.021-.005a5.41 5.41 0 00-2.22.486 5.2 5.2 0 00-1.794 1.345v-1.53h-2.75v12.445h2.84v-8.742a5.162 5.162 0 011.684-1.187 5.35 5.35 0 012.037-.45c.501.019.998.101 1.478.245l.531-2.235zm5.625-2.698a2.766 2.766 0 011.876-.632l-.021-.005a4.17 4.17 0 012.243.719l1.064-1.862a5.95 5.95 0 00-3.722-1.193 6.52 6.52 0 00-1.116.097c-.447.09-.881.232-1.292.423a4.655 4.655 0 00-1.27.821c-.408.4-.721.878-.92 1.403a5.48 5.48 0 00-.378 2.101v13.195h2.775V18.861h4.684v-1.989h-4.662v-.622a2.454 2.454 0 01.142-1.077c.128-.345.331-.66.597-.923z" fill="#64708B"/><path fill-rule="evenodd" clip-rule="evenodd" d="M95.577 25.895a6.42 6.42 0 01-3.987 1.443l-.021-.005c-2.141 0-3.385-1.035-3.732-3.106h5.507a3.912 3.912 0 001.497-.187 3.84 3.84 0 001.3-.736c.323-.317.575-.694.741-1.108.166-.414.24-.857.22-1.3a3.624 3.624 0 00-.368-1.771 3.79 3.79 0 00-1.189-1.401 6.139 6.139 0 00-3.721-1.127c-2.091-.004-3.729.642-4.912 1.938a6.808 6.808 0 00-1.776 4.769c.004 1.928.587 3.458 1.75 4.59a6.132 6.132 0 002.087 1.307 6.334 6.334 0 002.457.397 8.317 8.317 0 005.444-1.888l-1.297-1.815zm-6.491-6.258a3.812 3.812 0 012.658-.97l-.021-.01a3.045 3.045 0 011.977.617c.23.178.417.404.544.66.128.255.195.536.195.82.015.209-.016.42-.092.616a1.476 1.476 0 01-.349.526 1.73 1.73 0 01-1.217.398h-5.003a4.264 4.264 0 011.308-2.657z" fill="#64708B"/><path d="M102.673 29.21a6.234 6.234 0 002.468.413 6.639 6.639 0 003.508-.898 5.806 5.806 0 002.191-2.26l-2.1-1.244c-.915 1.395-2.081 2.092-3.498 2.092a3.438 3.438 0 01-1.407-.25 3.314 3.314 0 01-1.166-.796c-.667-.68-1-1.724-1-3.132 0-1.407.355-2.472 1.064-3.193.328-.35.732-.628 1.184-.815.451-.186.94-.277 1.431-.266a3.467 3.467 0 011.865.454 3.272 3.272 0 011.298 1.362l2.228-1.22c-1.053-1.92-2.859-2.88-5.418-2.88a6.412 6.412 0 00-2.557.41 6.204 6.204 0 00-2.158 1.38c-1.177 1.193-1.763 2.783-1.76 4.768.004 1.986.587 3.564 1.749 4.733a6.033 6.033 0 002.078 1.343zm18.166-.755l-.983-2.04v-.005a4.064 4.064 0 01-2.233.704 2.065 2.065 0 01-1.356-.51c-.206-.2-.364-.44-.465-.704a1.88 1.88 0 01-.119-.826V18.86h4.401v-1.989h-4.401v-3.83h-2.797V25.2a4.666 4.666 0 001.064 3.244c.393.406.876.722 1.413.926a4.03 4.03 0 001.691.252 6.477 6.477 0 003.785-1.168zm13.365-11.583h-2.796v8.558c-1.521 1.211-2.876 1.816-4.067 1.816-1.297 0-1.946-.738-1.946-2.213v-8.161h-2.823v8.798c-.063.532 0 1.07.183 1.575.183.506.482.965.875 1.344.393.38.87.67 1.395.849a3.871 3.871 0 001.641.185c1.637-.02 3.252-.7 4.843-2.04v1.74h2.695V16.871zm21.367-.144a3.867 3.867 0 00-1.655-.177v.02a7.605 7.605 0 00-4.97 1.99c-.606-1.34-1.824-2.01-3.652-2.01-1.611 0-3.222.704-4.849 2.111v-1.79h-2.716v12.43h2.876v-8.62c1.414-1.194 2.725-1.79 3.934-1.79.269-.03.541 0 .796.088.255.09.485.233.671.422a2.77 2.77 0 01.425 1.724v8.16h2.876v-8.721c1.297-1.126 2.618-1.689 3.961-1.689.269-.024.541.012.794.107.252.095.477.245.657.44.337.51.492 1.11.441 1.713v8.16h2.876v-8.772a3.422 3.422 0 00-.176-1.589 3.556 3.556 0 00-.88-1.355 3.749 3.749 0 00-1.409-.852z" fill="#64708B"/></svg>
